!!!OTL: Indian Song
!!!ONM: 121a.
**kern
*clefG2
*k[]
*C:
*M4/4
*MM100
{4c
=1
4.f
8f
4f
4f
=2
(4d
4c)
4B
4c
=3
4.f
8f
4f
4a
=4
2.cc}
{4a
=5
2a
4f
4a
=6
2cc
4a
4cc
=7
4dd
2cc
4a
=8
2.cc}
{4c
=9
2f
4f
4f
=10
2f
4d
4c
=11
2f
4g
4a
=12
2.b-}
{4a
=13
2g
4e
4c
=14
2f
4e
4d
=15
2d
4c
4B
=16
2c}
==
*-
!!!CNT: Folksongs of Maritime Canada
!!!MRD: 1928///-1932///
!!!OCL: Helen Creighton
!!!YOR: Songs and Ballads from Nova Scotia
!!!PPR: J.M. Dent & Sons, Limited
!!!PPP: Toronto, Canada
!!!PDT: 1932///
!!!reprint: Dover Publications, 1992: ISBN 0-486-21703-5
!!!ENC1: Craig Stuart Sapp (music and bibliographic data)                       
!!!ENC2: Marcus Pearce (phrase markings and key designations)                   
!!!ENC3: Darrell Conklin (phrase markings and key designations)   
!!!END: 2002/04/10/
!!!EEV: 2004/06/05
!!!MPN: Mr. Charlie Hartlan
!!!PPG: 262
!!!EFL: 122/152
!!!ARE: Canada; Nova Scotia
!!!verses: 1
!!!VTS: 308020212
